packages/vibrant-icons/assets/icons/ChevronLeftCircle/Regular.svg

<svg width="24" height="24" viewBox="0 0 24 24" fill="none" xmlns="http://www.w3.org/2000/svg">
<path d="M13.5863 6.03163C13.5082 5.95349 13.3815 5.95349 13.3034 6.03163L7.47709 11.86C7.39901 11.9381 7.39901 12.0647 7.47708 12.1428L13.3036 17.9715C13.3817 18.0497 13.5084 18.0497 13.5865 17.9715L14.7592 16.7984C14.8373 16.7203 14.8373 16.5937 14.7592 16.5156L10.2469 12.0016L14.7592 7.4877C14.8373 7.4096 14.8373 7.283 14.7592 7.2049L13.5863 6.03163Z" fill="#0C0C0C"/>
<path fill-rule="evenodd" clip-rule="evenodd" d="M0.900146 11.9999C0.900146 18.1304 5.86965 23.0999 12.0001 23.0999C18.1306 23.0999 23.1006 18.1304 23.1006 11.9999C23.1006 5.8694 18.1311 0.899902 12.0006 0.899902C5.87015 0.899902 0.900146 5.8694 0.900146 11.9999ZM20.9001 11.9999C20.9001 16.9074 16.9076 20.8999 12.0001 20.8999C7.09265 20.8999 3.10065 16.9074 3.10065 11.9999C3.10065 7.0924 7.09315 3.0999 12.0006 3.0999C16.9081 3.0999 20.9001 7.0924 20.9001 11.9999Z" fill="#0C0C0C"/>
</svg>

<svg xmlns="http://www.w3.org/2000/svg" width="24" height="24" fill="none"><path fill="#0C0C0C" d="M13.586 6.032a.2.2 0 0 0-.283 0L7.477 11.86a.2.2 0 0 0 0 .283l5.827 5.828a.2.2 0 0 0 .282 0l1.173-1.173a.2.2 0 0 0 0-.282l-4.512-4.514 4.512-4.514a.2.2 0 0 0 0-.283z"/><path fill="#0C0C0C" fill-rule="evenodd" d="M.9 12c0 6.13 4.97 11.1 11.1 11.1S23.1 18.13 23.1 12 18.132.9 12 .9.9 5.87.9 12m20 0c0 4.907-3.992 8.9-8.9 8.9-4.907 0-8.9-3.993-8.9-8.9 0-4.908 3.993-8.9 8.9-8.9 4.908 0 8.9 3.992 8.9 8.9" clip-rule="evenodd"/></svg>
